icons/svg/like_24.svg

<?xml version="1.0" encoding="UTF-8"?>
<svg width="24px" height="24px" viewBox="0 0 24 24" version="1.1" xmlns="http://www.w3.org/2000/svg" xmlns:xlink="http://www.w3.org/1999/xlink">
    <!-- Generator: Sketch 57.1 (83088) - https://sketch.com -->
    <title>like_24</title>
    <desc>Created with Sketch.</desc>
    <g id="New-Icon" stroke="none" stroke-width="1" fill="none" fill-rule="evenodd">
        <g id="like_24" fill="#171B1F">
            <g id="fill">
                <path d="M23.0078,12.4116 L21.7658,19.3196 C21.3708,21.4526 19.5098,22.9996 17.3408,22.9996 L6.9998,22.9996 L6.9998,12.7546 C6.9998,12.3166 7.0808,11.8876 7.2408,11.4796 L11.2168,1.3176 C11.2928,1.1246 11.4758,0.9996 11.6828,0.9996 L12.0188,0.9996 C12.4748,0.9996 12.9008,1.2036 13.1858,1.5586 C13.4728,1.9136 13.5808,2.3726 13.4838,2.8186 L12.0778,9.2876 C12.0138,9.5856 12.0858,9.8916 12.2768,10.1276 C12.4678,10.3646 12.7518,10.4996 13.0548,10.4996 L21.4998,10.4996 C21.9228,10.4996 22.3358,10.7056 22.6338,11.0636 C22.9528,11.4486 23.0928,11.9506 23.0078,12.4116 L23.0078,12.4116 Z M5.9998,22.9996 L3.4998,22.9996 C2.1218,22.9996 0.9998,21.8786 0.9998,20.4996 L0.9998,15.4996 C0.9998,14.2916 1.5258,12.9996 2.9998,12.9996 L5.9998,12.9996 L5.9998,22.9996 Z M23.4028,10.4246 C22.9138,9.8366 22.2198,9.4996 21.4998,9.4996 L13.0548,9.4996 L14.4618,3.0316 C14.6228,2.2876 14.4418,1.5226 13.9648,0.9316 C13.4878,0.3396 12.7788,-0.0004 12.0188,-0.0004 L11.6828,-0.0004 C11.0608,-0.0004 10.5118,0.3746 10.2858,0.9536 L6.3088,11.1156 C6.1968,11.4026 6.1218,11.6996 6.0708,11.9996 L2.9998,11.9996 C1.2058,11.9996 -0.0002,13.4066 -0.0002,15.4996 L-0.0002,20.4996 C-0.0002,22.4296 1.5708,23.9996 3.4998,23.9996 L5.9998,23.9996 L6.9998,23.9996 L17.3408,23.9996 C19.9918,23.9996 22.2658,22.1086 22.7498,19.4986 L23.9918,12.5906 C24.1298,11.8446 23.9098,11.0346 23.4028,10.4246 L23.4028,10.4246 Z"></path>
            </g>
        </g>
    </g>
</svg>

<svg width="24" height="24" xmlns="http://www.w3.org/2000/svg"><path d="M23.008 12.412l-1.242 6.908A4.5 4.5 0 0117.34 23H7V12.755c0-.438.08-.867.24-1.275l3.977-10.162A.499.499 0 0111.683 1h.336c.456 0 .882.204 1.167.559.287.355.395.814.298 1.26l-1.406 6.469a.996.996 0 00.199.84.995.995 0 00.778.372H21.5c.423 0 .836.206 1.134.564.319.385.459.887.374 1.348zM6 23H3.5A2.503 2.503 0 011 20.5v-5c0-1.208.526-2.5 2-2.5h3v10zm17.403-12.575c-.49-.588-1.183-.925-1.903-.925h-8.445l1.407-6.468a2.49 2.49 0 00-.497-2.1A2.488 2.488 0 0012.019 0h-.336c-.622 0-1.171.375-1.397.954L6.309 11.116A4.497 4.497 0 006.07 12H3c-1.794 0-3 1.407-3 3.5v5C0 22.43 1.57 24 3.5 24h13.84a5.502 5.502 0 005.41-4.501l1.242-6.908c.138-.746-.082-1.556-.59-2.166z" fill="#171B1F" fill-rule="evenodd"/></svg>
